X:1625
T:Blow Zabella
M:6/8
K:G
d2c BAG| c2A B2G| d2c BAG| A2D G3::
g2d BGB| cAc BAG| g2d BGB|1 ADF G3 :|2 ADF G2|:
G/A/|\
BAB cBc| d3 d2c| BcB ABA|1 G3 G2 :|2 G3 G3|:
g2G g2G| ABA B2G| g2G g2G|1 ABA G3:|2 ABA G2|:
G/A/|\
BAB cBc| d3 d2c| BcB ABA| G3 G2:|


